public/images/icons/40x40/facebook_40_purple.svg

<svg height="40" viewBox="0 0 40 40" width="40" xmlns="http://www.w3.org/2000/svg"><path d="m31.5555556 7h-23.11111116c-.79774463 0-1.44444444.64669981-1.44444444 1.44444444v23.11111116c0 .7977446.64669981 1.4444444 1.44444444 1.4444444h12.44388886v-10.0533333h-3.3763889v-3.9361111h3.3763889v-2.8888889c0-3.3583334 2.0511111-5.1891667 5.0555556-5.1891667 1.0107683-.0029539 2.0209538.0488814 3.0261111.1552778v3.4955555h-2.0727778c-1.6286111 0-1.9463889.7763889-1.9463889 1.9138889v2.5061111h3.8963889l-.5055555 3.9361111h-3.3908334v10.0605556h6.6047223c.7977446 0 1.4444444-.6466998 1.4444444-1.4444444v-23.11111116c0-.79774463-.6466998-1.44444444-1.4444444-1.44444444z" fill="#1e1169"/></svg>

<svg xmlns="http://www.w3.org/2000/svg" width="40" height="40" viewBox="0 0 40 40">
  <path fill="#1E1169" d="M31.5555556,7 L8.44444444,7 C7.64669981,7 7,7.64669981 7,8.44444444 L7,31.5555556 C7,32.3533002 7.64669981,33 8.44444444,33 L20.8883333,33 L20.8883333,22.9466667 L17.5119444,22.9466667 L17.5119444,19.0105556 L20.8883333,19.0105556 L20.8883333,16.1216667 C20.8883333,12.7633333 22.9394444,10.9325 25.9438889,10.9325 C26.9546572,10.9295461 27.9648427,10.9813814 28.97,11.0877778 L28.97,14.5833333 L26.8972222,14.5833333 C25.2686111,14.5833333 24.9508333,15.3597222 24.9508333,16.4972222 L24.9508333,19.0033333 L28.8472222,19.0033333 L28.3416667,22.9394444 L24.9508333,22.9394444 L24.9508333,33 L31.5555556,33 C32.3533002,33 33,32.3533002 33,31.5555556 L33,8.44444444 C33,7.64669981 32.3533002,7 31.5555556,7 Z"/>
</svg>
